app/dist/common/images/fluidigm-del.svg

<svg height="18" width="18" xmlns="http://www.w3.org/2000/svg"><path d="m0 0h18v18h-18z" fill="#f0f3fa"/><path d="m9.75 12 1.65-2.1-.4-.9h-3z" fill="#a30094"/><path d="m4.5 10.65 2.1 3 .9-2.25v-2.1z" fill="#530473"/><path d="m9.45 14.4.3-2.4-1.75-3v3z" fill="#640376"/><path d="m8.1 4.35-2.55 1.2 1.95.95 2.1-.2z" fill="#b6529e"/><path d="m11.4 3.6-3.3.75 1.5 1.95 1.5.15z" fill="#e1008d"/><path d="m11 6 .4-2.4 1.65 1.8-2.05 1.6-.8-.25z" fill="#ed0076"/><path d="m13.5 6.75-.45-1.35-2.05 1.6z" fill="#f30095"/><path d="m13.05 7.35.45-.6-2.5.25h-3v1.5z" fill="#a40079"/><path d="m6.6 13.65 2.85.75-1.45-2.4h-1z" fill="#7c0e91"/><path d="m6.15 8.4-.6-2.85 1.45.45.35 4.05-2.85.6z" fill="#900098"/><path d="m7 6h4v1h-4z" fill="#f0f3fa"/><path d="m8 6v6h-1v-6z" fill="#f0f3fa"/><path d="m13.35 8.4-.3-1.05-5.05 1.15h2.5z" fill="#d50092"/><path d="m7 8.5h3.5v1h-3.5z" fill="#f0f3fa"/><path d="m11.4 9.9 1.95-1.5-2.85.1v1z" fill="#b60470"/></svg>

<!-- by TradingView --><svg width="18" height="18" xmlns="http://www.w3.org/2000/svg"><path fill="#F0F3FA" d="M0 0h18v18H0z"/><path d="M9.75 12l1.65-2.1L11 9H8l1.75 3z" fill="#A30094"/><path d="M4.5 10.65l2.1 3 .9-2.25V9.3l-3 1.35z" fill="#530473"/><path d="M9.45 14.4l.3-2.4L8 9v3l1.45 2.4z" fill="#640376"/><path d="M8.1 4.35l-2.55 1.2 1.95.95 2.1-.2-1.5-1.95z" fill="#B6529E"/><path d="M11.4 3.6l-3.3.75L9.6 6.3l1.5.15.3-2.85z" fill="#E1008D"/><path d="M11 6l.4-2.4 1.65 1.8L11 7l-.8-.25L11 6z" fill="#ED0076"/><path d="M13.5 6.75l-.45-1.35L11 7l2.5-.25z" fill="#F30095"/><path d="M13.05 7.35l.45-.6L11 7H8v1.5l5.05-1.15z" fill="#A40079"/><path d="M6.6 13.65l2.85.75L8 12H7l-.4 1.65z" fill="#7C0E91"/><path d="M6.15 8.4l-.6-2.85L7 6l.35 4.05-2.85.6L6.15 8.4z" fill="#900098"/><path fill="#F0F3FA" d="M7 6h4v1H7z"/><path fill="#F0F3FA" d="M8 6v6H7V6z"/><path d="M13.35 8.4l-.3-1.05L8 8.5h2.5l2.85-.1z" fill="#D50092"/><path d="M7 8.5h3.5v1H7v-1z" fill="#F0F3FA"/><path d="M11.4 9.9l1.95-1.5-2.85.1v1l.9.4z" fill="#B60470"/></svg>
